X: 1
T: New Reed, The
M: 9/8
L: 1/8
R: slip jig
K: Dmix
|:D2d AFd AFd | D2d AFA GFE | D2d AFd AFd | c2c BAG FGA :|
|: FDF FDF GFE | FDA BAG FED | FDF FDF EFG | BAG AFG EGE :|
|: c2c cBc cBc | dcB cBc fed | afd afd fed | d^ce dAF DFA :|
